X: 32180
T: Peter's
R: reel
M: 4/4
K: Gmajor
|:efdf edBA|GABG A2 B/c/d|eB B/B/B gfed|BAGB A2 B/c/d|
e/f/e df edBA|GEDE GABG|ABdA Bdgf|1 edBG E3 d:|2 edBG E3 F||
|:EB, B,/B,/B, GABd|gedB GA B/A/G|ADFA DEFA|BAGF GFED|
EB, B,/B,/B, GABd|gedB GABd|e/f/g fg edBA|1 GABG E3 D:|2 GABG E4||

